client/public/images/check.svg

<svg height="10" viewBox="0 0 14 10" width="14" xmlns="http://www.w3.org/2000/svg"><path d="m12.2583333 1.00833333c-.1564721-.15776054-.3694687-.2464986-.5916666-.2464986-.222198 0-.4351945.08873806-.5916667.2464986l-6.20833333 6.21666667-2.60833334-2.61666667c-.21882517-.21138214-.533799-.28996546-.82627389-.20614837-.2924749.08381709-.51801696.31730077-.59166668.6125-.07364971.29519924.01578206.60726623.23460724.81864837l3.2 3.2c.15647217.15776055.36946872.24649861.59166667.24649861.22219794 0 .4351945-.08873806.59166666-.24649861l6.79999997-6.8c.1710094-.15776298.2682774-.37983425.2682774-.6125 0-.23266574-.097268-.45473701-.2682774-.6125z" fill="#fff"/></svg>

<?xml version="1.0" encoding="UTF-8"?>
<svg width="14px" height="10px" viewBox="0 0 14 10" version="1.1" xmlns="http://www.w3.org/2000/svg" xmlns:xlink="http://www.w3.org/1999/xlink">
    <title>check</title>
    <g id="Page-1" stroke="none" stroke-width="1" fill="none" fill-rule="evenodd">
        <g id="Home-account-menu" transform="translate(-270.000000, -343.000000)" fill="#FFFFFF" fill-rule="nonzero">
            <g id="check" transform="translate(270.000000, 343.000000)">
                <path d="M12.2583333,1.00833333 C12.1018612,0.850572791 11.8888646,0.76183473 11.6666667,0.76183473 C11.4444687,0.76183473 11.2314722,0.850572791 11.075,1.00833333 L4.86666667,7.225 L2.25833333,4.60833333 C2.03950816,4.39695119 1.72453433,4.31836787 1.43205944,4.40218496 C1.13958454,4.48600205 0.914042479,4.71948573 0.840392763,5.01468496 C0.766743047,5.3098842 0.856174821,5.62195119 1.075,5.83333333 L4.275,9.03333333 C4.43147217,9.19109388 4.64446872,9.27983194 4.86666667,9.27983194 C5.08886461,9.27983194 5.30186117,9.19109388 5.45833333,9.03333333 L12.2583333,2.23333333 C12.4293427,2.07557035 12.5266107,1.85349908 12.5266107,1.62083333 C12.5266107,1.38816759 12.4293427,1.16609632 12.2583333,1.00833333 Z" id="Path"></path>
            </g>
        </g>
    </g>
</svg>
